X: 118
T: Le pouvert\'e
N: Derived from Mar3019-Le_pouverte.krn
C: Johannes Martini
%%abc-version 2.0
%%abcx-abcm2ps-target-version 5.9.1 (29 Sep 2008)
%%abc-creator hum2abc beta
%%abcx-conversion-date 2019/02/17 07:19:43
%%abc-edited-by Jesse Rodin
%%abc-edited-by Chris Gage 11-06-2014
%%abcx-initial-encoding-date 2015/03/02/
%%humdrum-veritas 3641420448
%%humdrum-veritas-data 2390917850
%%linebreak <none>
%%barnumbers 0
L: 1/4
M: 2/1
Q: 1/2=120
V: 1 clef=treble
V: 2 clef=treble-8
V: 3 clef=bass
K: F
[V:1] z8 | 
[V:2] z8 | 
[V:3] G,,4D,4- | 
[V:1] z8 | 
[V:2] z8 | 
[V:3] D,2C,B,,C,4 | 
[V:1] z8 | 
[V:2] G4d4- | 
[V:3] B,,2G,,4B,,2 | 
[V:1] z8 | 
[V:2] d2cBc4 | 
[V:3] A,,2G,,2A,,4 | 
[V:1] G4d4- | 
[V:2] B2G4B2 | 
[V:3] G,,8 | 
[V:1] d2cBc4 | 
[V:2] A2G2A4 | 
[V:3] z2G,4F,2 | 
[V:1] B2G4B2 | 
[V:2] G4z4 | 
[V:3] G,2B,4A,G, | 
[V:1] A2G2A4 | 
[V:2] z8 | 
[V:3] F,2G,4F,2 | 
[V:1] G4z4 | 
[V:2] z2G4F2 | 
[V:3] G,F,E,D,C,2D,2 | 
[V:1] z8 | 
[V:2] G2B4AG | 
[V:3] E,2D,4C,B,, | 
[V:1] z8 | 
[V:2] F2G4^F2 | 
[V:3] A,,2G,,2A,,4 | 
[V:1] z2G4F2 | 
[V:2] G4c2d2 | 
[V:3] G,,4z4 | 
[V:1] G2B4AG | 
[V:2] e2d4cB | 
[V:3] z2G,,2B,,2C,2 | 
[V:1] F2G4^F2 | 
[V:2] A2G2A4 | 
[V:3] D,2E,2D,4 | 
[V:1] G4E3F | 
[V:2] G8 | 
[V:3] z2G,,2C,2D,2 | 
[V:1] G2A2G4 | 
[V:2] z4G2c2 | 
[V:3] E,2F,2E,4 | 
[V:1] F2A3Bc2- | 
[V:2] d2c2f2ed | 
[V:3] z2A,,2D,2E,2 | 
[V:1] cFB4A2 | 
[V:2] c2B2c4 | 
[V:3] F,2G,2F,4 | 
[V:1] B4G2F2 | 
[V:2] B2d2c2A2- | 
[V:3] z2B,,2C,2D,2- | 
[V:1] A4F2E2 | 
[V:2] A2c2B2G2- | 
[V:3] D,C,A,,2B,,2C,2- | 
[V:1] G4F4 | 
[V:2] G2B4A2 | 
[V:3] C,B,,G,,2z2F,2 | 
[V:1] D2C2E4 | 
[V:2] B2c4B2 | 
[V:3] G,2A,3G,E,2 | 
[V:1] D4B,2A,2 | 
[V:2] A2B3AF2 | 
[V:3] F,2G,3F,D,2 | 
[V:1] C4G,2B,2 | 
[V:2] E2F2G4 | 
[V:3] z2A,2B,2G,2- | 
[V:1] A,4G,4 | 
[V:2] D4z2G2- | 
[V:3] G,2F,2G,2B,2 | 
[V:1] z2C2B,2D2- | 
[V:2] G2F2G2B2- | 
[V:3] A,4G,4 | 
[V:1] D2CB,A,3B, | 
[V:2] BAG2A2F2 | 
[V:3] z2E,2F,2D,2- | 
[V:1] CDE2F2D2- | 
[V:2] E4D4 | 
[V:3] D,2C,2D,2F,2 | 
[V:1] D2^C2D4 | 
[V:2] G4A4 | 
[V:3] E,4D,4 | 
[V:1] z8 | 
[V:2] B2c2d3c | 
[V:3] z2A,,2B,,2G,,2- | 
[V:1] z4G4 | 
[V:2] B2A3GG2- | 
[V:3] G,,2F,,2G,,2B,,2 | 
[V:1] A4B2c2 | 
[V:2] G2F2G2A2 | 
[V:3] A,,4G,,4 | 
[V:1] d3cB2A2- | 
[V:2] B3cd2c2- | 
[V:3] z2G,4A,2 | 
[V:1] AGG4^F2 | 
[V:2] c2B2A4 | 
[V:3] F,2G,2D,4 | 
[V:1] G4z2D2- | 
[V:2] G4A2B2- | 
[V:3] z2C,4D,2 | 
[V:1] D2G4FE | 
[V:2] B2G2B3c | 
[V:3] B,,2C,2G,,4 | 
[V:1] !fermata!F4G2B2- | 
[V:2] !fermata!A4z2D2- | 
[V:3] !fermata!D,4G,,4 | 
[V:1] B2G2B2c2 | 
[V:2] D2G4FE | 
[V:3] G,,8 | 
[V:1] A4G4 | 
[V:2] F4G2B2- | 
[V:3] z8 | 
[V:1] z2d4G2 | 
[V:2] B2G2B2c2 | 
[V:3] z8 | 
[V:1] A2c2B4 | 
[V:2] A4G4 | 
[V:3] z8 | 
[V:1] A4d3c | 
[V:2] z2d4G2 | 
[V:3] z8 | 
[V:1] BAA4G2 | 
[V:2] A2c2B4 | 
[V:3] z8 | 
[V:1] A4z2F2 | 
[V:2] A4d4 | 
[V:3] z2D,3E,F,D, | 
[V:1] G2A3Bc2 | 
[V:2] c4A4 | 
[V:3] E,2F,3G,A,F, | 
[V:1] B2d3cB2 | 
[V:2] B4G4 | 
[V:3] G,2G,,3A,,B,,G,, | 
[V:1] A2F4D2 | 
[V:2] F4B4 | 
[V:3] A,,2B,,3C,D,B,, | 
[V:1] E2F3GAF | 
[V:2] A4d4 | 
[V:3] C,2D,3E,F,D, | 
[V:1] G2A3Bc2 | 
[V:2] c6A2 | 
[V:3] E,2F,3G,A,F, | 
[V:1] B2G4^F2 | 
[V:2] B2c2A4 | 
[V:3] G,2C,2D,4 | 
[V:1] G8 |]  
[V:2] G8 |]  
[V:3] G,,8 |]  



